dist/images/valve.svg

<svg width="1281" height="678" viewBox="0 0 1281 678" fill="none" xmlns="http://www.w3.org/2000/svg">
<path d="M128.352 49.5239C2.70412 97.155 -34.6485 288.524 -49.6486 339.524C-64.6487 390.524 -91.6485 675.524 148.37 632.947C403.26 598.567 520.725 441.57 720.725 551.584C1062.74 739.795 1557 661.003 1557 661.003L1557 421.003C1557 421.003 1455.26 441.877 1331.86 384.173C1187.29 316.493 1101.62 55.893 878.351 3.52405C720.725 -18.4761 675.448 103.929 575.351 95.524C444.351 84.524 434.352 -66.4761 128.352 49.5239Z" fill="#D8EEFE"/>
</svg>

<svg width="1281" height="678" fill="none" xmlns="http://www.w3.org/2000/svg"><path d="M128.352 49.524c-125.648 47.631-163 239-178 290s-42 336 198.018 293.423c254.89-34.38 372.355-191.377 572.355-81.363C1062.74 739.795 1557 661.003 1557 661.003v-240s-101.74 20.874-225.14-36.83c-144.57-67.68-230.24-328.28-453.509-380.649-157.626-22-202.903 100.405-303 92-131-11-140.999-162-446.999-46z" fill="#D8EEFE"/></svg>
